X:1
T:Lombardia, CMD
T:Lombardia, CMD
T:George Frederick Root, 1881
T:Public Domain Courtesy of the Cyber Hymnal™
C:George Frederick Root, 1881
Z:Public Domain
Z:Courtesy of the Cyber Hymnal™
%%score ( 1 2 ) ( 3 4 )
L:1/8
Q:1/4=110
M:4/4
K:Bb
V:1 treble 
V:2 treble 
V:3 bass 
V:4 bass 
V:1
 [DF]2 | [DF]3 [EG] [DF]2 [DB]2 | [Ec]3 [EB] [EG]2 [EB]2 | [DF]3 [DF] [EG]2 [EA]2 | [DB]6 [Fd]2 | %5
 [Fd]3 [Ge] [Fd]2 [Ec]2 | [DB]3 [Ec] [DB]2 [DA]2 | [=EG]3 [EB] [EA]2 [EG]2 | F6 F2 | %9
 [FA]3 [FB] [Fc]2 [FA]2 | [FB]3 [Fc] [Fd]2 [Fd]2 | [Fe]2 [Fd]2 [Gc]2 [GB]2 | [Fc]6 [EF]2 | %13
 [DF]3 [EG] [DF]2 [DB]2 | [Ec]3 [EB] [EG]2 [EB]2 | [DF]3 [DF] [EG]2 [EA]2 | [DB]6 |] %17
V:2
 x2 | x8 | x8 | x8 | x8 | x8 | x8 | x8 | F6 F2 | x8 | x8 | x8 | x8 | x8 | x8 | x8 | x6 |] %17
V:3
 [B,,B,]2 | [B,,B,]3 [B,,B,] [B,,B,]2 [B,,F,]2 | [E,G,]3 [E,G,] [E,B,]2 [E,G,]2 | %3
 F,3 F, F,2 [F,C]2 | [B,,B,]6 [B,,B,]2 | [B,,B,]3 [B,,B,] [B,,B,]2 [B,,B,]2 | %6
 [B,,B,]3 [B,,B,] [B,,B,]2 [B,,B,]2 | [C,B,]3 [C,G,] [C,C]2 [C,B,]2 | [F,A,]6 [F,A,]2 | %9
 [F,C]3 [F,D] [F,E]2 [F,C]2 | [B,,D]3 [B,,C] [B,,B,]2 [B,,B,]2 | [C,B,]2 [D,B,]2 [E,G,]2 [=E,B,]2 | %12
 [F,A,]6 [F,A,]2 | [B,,B,]3 [B,,B,] [B,,B,]2 [B,,F,]2 | [E,G,]3 [E,G,] [E,B,]2 [E,G,]2 | %15
 F,3 F, F,2 [F,C]2 | [B,,B,]6 |] %17
V:4
 x2 | x8 | x8 | F,3 F, F,2 x2 | x8 | x8 | x8 | x8 | x8 | x8 | x8 | x8 | x8 | x8 | x8 | %15
 F,3 F, F,2 x2 | x6 |] %17

